icon/gr/vimeo.svg

<svg xmlns="http://www.w3.org/2000/svg" viewBox="0 0 24 24" height="1em" width="1em">
  <path fill="#1AB7EA" fill-rule="evenodd" d="M23.9883358,6.80210856 C23.8810843,9.13839127 22.2498115,12.336436 19.0937673,16.3969929 C15.8304716,20.6368022 13.069683,22.7570819 10.8121514,22.7570819 C9.41263176,22.7570819 8.22836518,21.4663138 7.26160165,18.8840277 C6.61584261,16.5162445 5.97083358,14.1484614 5.32432453,11.7806783 C4.60581447,9.19914212 3.8363037,7.90687403 3.01204216,7.90687403 C2.83203964,7.90687403 2.20428086,8.28487932 1.12801579,9.03713985 L0,7.58286949 C1.18426658,6.54260493 2.35203292,5.50234037 3.50179902,4.45982578 C5.08132113,3.09555668 6.26858775,2.37779663 7.0583488,2.30504561 C8.92587495,2.1257931 10.075641,3.40231097 10.5068971,6.13459922 C10.9734036,9.08289049 11.2966581,10.9166662 11.4774107,11.6344262 C12.0166682,14.0809605 12.6091765,15.3027276 13.2556856,15.3027276 C13.7574426,15.3027276 14.5127032,14.5092164 15.5184672,12.9214442 C16.5234813,11.335172 17.0619888,10.1284051 17.1339898,9.2981435 C17.2779919,7.92937434 16.7394843,7.24311474 15.5184672,7.24311474 C14.9439592,7.24311474 14.3514509,7.37511658 13.7424424,7.63612024 C14.9222089,3.77356617 17.1752404,1.89778991 20.501537,2.0042914 C22.9675715,2.07704242 24.1308378,3.6760648 23.9883358,6.80210856"/>
</svg>

<svg xmlns="http://www.w3.org/2000/svg" width="24" height="24"><path fill="#1AB7EA" fill-rule="evenodd" d="M23.988 6.802c-.107 2.336-1.738 5.534-4.894 9.595-3.264 4.24-6.024 6.36-8.282 6.36-1.4 0-2.584-1.29-3.55-3.873-.646-2.368-1.291-4.736-1.938-7.103-.718-2.582-1.488-3.874-2.312-3.874-.18 0-.808.378-1.884 1.13L0 7.583c1.184-1.04 2.352-2.08 3.502-3.123 1.58-1.364 2.767-2.082 3.556-2.155 1.868-.18 3.018 1.097 3.449 3.83.466 2.948.79 4.782.97 5.5.54 2.446 1.132 3.668 1.779 3.668.501 0 1.257-.794 2.262-2.382 1.005-1.586 1.544-2.793 1.616-3.623.144-1.369-.395-2.055-1.616-2.055-.574 0-1.167.132-1.776.393 1.18-3.862 3.433-5.738 6.76-5.632 2.466.073 3.629 1.672 3.486 4.798"/></svg>
